build/flags/LaoPeopleSDemocraticRepublic.svg

<svg xmlns="http://www.w3.org/2000/svg" fill="none" viewBox="0 0 28 28" focusable="false"><defs><filter id="Lao_People's_Democratic_Republic_svg__a"><feColorMatrix values="0 0 0 0 1 0 0 0 0 1 0 0 0 0 1 0 0 0 1 0"/></filter></defs><mask id="Lao_People's_Democratic_Republic_svg__b" width="28" height="20" x="0" y="4" maskUnits="userSpaceOnUse"><g filter="url(#Lao_People's_Democratic_Republic_svg__a)"><rect width="28" height="20" y="4" fill="#FFF" rx="3"/><rect width="28" height="20" y="4" stroke="#969696" stroke-opacity="0" stroke-width="0" rx="3"/></g></mask><path fill="none" d="M0 0H28V28H0z"/><rect width="28" height="20" y="4" fill="#FFF" rx="3"/><rect width="28" height="20" y="4" rx="3"/><g mask="url(#Lao_People's_Democratic_Republic_svg__b)"><path fill="#073A88" fill-rule="evenodd" d="M0 18.6666L28 18.6666L28 9.33331L0 9.33331L0 18.6666Z"/><path d="M28 18.6666L28 9.33331L0 9.33331L0 18.6666L28 18.6666Z"/><path fill="#E2273E" fill-rule="evenodd" d="M0 9.33333L28 9.33333L28 4L0 4L0 9.33333Z"/><path d="M28 9.33333L28 4L0 4L0 9.33333L28 9.33333Z"/><path fill="#E2273E" fill-rule="evenodd" d="M0 24L28 24L28 18.6667L0 18.6667L0 24Z"/><path d="M28 24L28 18.6667L0 18.6667L0 24L28 24Z"/><path fill="#FFF" fill-rule="evenodd" d="M14 17.3334C15.841 17.3334 17.3334 15.841 17.3334 14C17.3334 12.1591 15.841 10.6667 14 10.6667C12.1591 10.6667 10.6667 12.1591 10.6667 14C10.6667 15.841 12.1591 17.3334 14 17.3334Z"/><path d="M17.3334 14C17.3334 12.1591 15.841 10.6667 14 10.6667C12.1591 10.6667 10.6667 12.1591 10.6667 14C10.6667 15.841 12.1591 17.3334 14 17.3334C15.841 17.3334 17.3334 15.841 17.3334 14Z"/></g></svg>

<svg xmlns="http://www.w3.org/2000/svg" fill="none" viewBox="0 0 28 28" focusable="false"><path fill="none" d="M0 0h28v28H0z"/><rect width="28" height="20" y="4" fill="#FFF" rx="3"/><rect width="28" height="20" y="4" rx="3"/><mask id="Lao_People's_Democratic_Republic_svg__a" width="28" height="20" x="0" y="4" mask-type="alpha" maskUnits="userSpaceOnUse"><rect width="28" height="20" y="4" fill="#FFF" rx="3"/><rect width="28" height="20" y="4" stroke="#979797" stroke-opacity="0" stroke-width="0" rx="3"/></mask><g mask="url(#Lao_People's_Democratic_Republic_svg__a)"><path fill="#073A88" fill-rule="evenodd" d="M0 18.66h28V9.33H0z"/><path d="M28 18.66V9.33H0v9.33z"/></g><g mask="url(#Lao_People's_Democratic_Republic_svg__a)"><path fill="#E2273E" fill-rule="evenodd" d="M0 9.33h28V4H0z"/><path d="M28 9.33V4H0v5.33z"/></g><g mask="url(#Lao_People's_Democratic_Republic_svg__a)"><path fill="#E2273E" fill-rule="evenodd" d="M0 24h28v-5.34H0z"/><path d="M28 24v-5.34H0V24z"/></g><g mask="url(#Lao_People's_Democratic_Republic_svg__a)"><path fill="#FFF" fill-rule="evenodd" d="M14 17.33c1.84 0 3.33-1.49 3.33-3.33 0-1.85-1.49-3.34-3.33-3.34-1.85 0-3.34 1.49-3.34 3.34 0 1.84 1.49 3.33 3.34 3.33"/><path d="M17.33 14c0-1.85-1.49-3.34-3.33-3.34-1.85 0-3.34 1.49-3.34 3.34 0 1.84 1.49 3.33 3.34 3.33 1.84 0 3.33-1.49 3.33-3.33"/></g></svg>
